;FLAVOR:Marlin
;TIME:410
;Filament used: 0.624514m
;Layer height: 0.3
;MINX:63.239
;MINY:61.744
;MINZ:0.3
;MAXX:93.639
;MAXY:107.269
;MAXZ:4.5
;Generated with Cura_SteamEngine 4.6.2
M140 S55
M105
M190 S55
M104 S210
M105
M109 S210
M82 ;absolute extrusion mode
; -- START GCODE --
G21        ;metric values
G90        ;absolute positioning
M82        ;set extruder to absolute mode
M107       ;start with the fan off
G28 X0 Y0  ;move X/Y to min endstops
G28 Z0     ;move Z to min endstops
G1 Z1 F1000             ;move up slightly
G1 Y60.0 Z0 E9.0 F1000.0;intro line
G1 Y100.0 E21.5 F1000.0 ;continue line
G92 E0                  ;zero the extruded length again
G1 F80
;Put printing message on LCD screen
M117 Printing...
; -- end of START GCODE --
G92 E0
G92 E0
G1 F2700 E-5
;LAYER_COUNT:15
;LAYER:0
M107
M204 S5000
M205 X30 Y30
G0 F3600 X79.218 Y62.723 Z0.3
M204 S3000
M205 X20 Y20
;TYPE:SKIRT
G1 F2700 E0
G1 F2100 X79.781 Y62.763 E0.03379
G1 X80.37 Y62.829 E0.06927
G1 X80.925 Y62.913 E0.10288
G1 X81.484 Y63.019 E0.13694
G1 X82.071 Y63.155 E0.17302
G1 X82.587 Y63.296 E0.20504
G1 X83.681 Y63.662 E0.2741
G1 X84.221 Y63.879 E0.30895
G1 X84.702 Y64.093 E0.34046
G1 X85.736 Y64.628 E0.41016
G1 X86.245 Y64.93 E0.4456
G1 X86.726 Y65.242 E0.47992
G1 X87.631 Y65.905 E0.54708
G1 X88.097 Y66.292 E0.58335
G1 X88.497 Y66.649 E0.61545
G1 X89.293 Y67.447 E0.68293
G1 X89.631 Y67.822 E0.71315
G1 X90.049 Y68.329 E0.75249
G1 X90.363 Y68.74 E0.78345
G1 X90.722 Y69.252 E0.82089
G1 X91.318 Y70.219 E0.8889
G1 X91.599 Y70.741 E0.92439
G1 X91.853 Y71.263 E0.95914
G1 X92.292 Y72.309 E1.02706
G1 X92.55 Y73.131 E1.07864
G1 X92.675 Y74.055 E1.13446
G1 X92.679 Y94.422 E2.35379
G1 X92.669 Y95.094 E2.39403
G1 X92.621 Y95.601 E2.42452
G1 X92.493 Y96.099 E2.4553
G1 X92.258 Y96.783 E2.4986
G1 X92.068 Y97.27 E2.5299
G1 X91.683 Y98.106 E2.585
G1 X91.409 Y98.631 E2.62045
G1 X91.129 Y99.117 E2.65403
G1 X90.516 Y100.059 E2.72132
G1 X90.165 Y100.534 E2.75668
G1 X89.809 Y100.98 E2.79084
G1 X89.066 Y101.807 E2.8574
G1 X88.234 Y102.602 E2.92629
G1 X87.834 Y102.945 E2.95784
G1 X87.316 Y103.352 E2.99728
G1 X86.841 Y103.693 E3.03229
G1 X86.394 Y103.99 E3.06442
G1 X85.43 Y104.554 E3.13128
G1 X84.364 Y105.072 E3.20224
G1 X83.851 Y105.286 E3.23551
G1 X83.29 Y105.493 E3.27131
G1 X82.751 Y105.669 E3.30526
G1 X82.209 Y105.823 E3.33899
G1 X81.095 Y106.07 E3.4073
G1 X80.482 Y106.169 E3.44448
G1 X79.959 Y106.232 E3.47602
G1 X78.792 Y106.307 E3.54603
G1 X78.256 Y106.309 E3.57812
G1 X77.661 Y106.29 E3.61376
G1 X77.097 Y106.25 E3.64761
G1 X76.508 Y106.184 E3.68309
G1 X75.953 Y106.1 E3.7167
G1 X75.394 Y105.994 E3.75076
G1 X74.804 Y105.857 E3.78702
G1 X74.294 Y105.718 E3.81867
G1 X73.199 Y105.351 E3.88781
G1 X72.667 Y105.138 E3.92211
G1 X72.163 Y104.913 E3.95516
G1 X71.136 Y104.381 E4.0244
G1 X70.2 Y103.804 E4.09023
G1 X69.784 Y103.514 E4.12059
G1 X69.237 Y103.1 E4.16166
G1 X68.787 Y102.727 E4.19665
G1 X68.376 Y102.36 E4.22964
G1 X67.577 Y101.561 E4.29729
G1 X67.226 Y101.166 E4.32893
G1 X66.812 Y100.663 E4.36793
G1 X66.458 Y100.195 E4.40306
G1 X66.146 Y99.747 E4.43574
G1 X65.874 Y99.325 E4.4658
G1 X65.549 Y98.774 E4.5041
G1 X65.272 Y98.26 E4.53905
G1 X65.02 Y97.741 E4.5736
G1 X64.594 Y96.723 E4.63966
G1 X64.316 Y95.826 E4.69588
G1 X64.203 Y94.944 E4.74912
G1 X64.199 Y74.594 E5.96744
G1 X64.208 Y73.924 E6.00755
G1 X64.255 Y73.418 E6.03798
G1 X64.384 Y72.914 E6.06912
G1 X64.613 Y72.248 E6.11129
G1 X64.843 Y71.664 E6.14886
G1 X65.2 Y70.896 E6.19957
G1 X65.467 Y70.385 E6.23408
G1 X65.747 Y69.898 E6.26772
G1 X66.362 Y68.954 E6.33517
G1 X66.713 Y68.479 E6.37053
G1 X67.073 Y68.028 E6.40507
G1 X67.846 Y67.168 E6.4743
G1 X68.21 Y66.808 E6.50495
G1 X68.667 Y66.39 E6.54203
G1 X69.56 Y65.664 E6.61093
G1 X70.039 Y65.319 E6.64627
G1 X70.487 Y65.022 E6.67845
G1 X71.448 Y64.459 E6.74513
G1 X72.514 Y63.941 E6.81609
G1 X73.027 Y63.727 E6.84936
G1 X73.588 Y63.52 E6.88516
G1 X74.127 Y63.344 E6.91911
G1 X74.669 Y63.19 E6.95284
G1 X75.783 Y62.943 E7.02116
G1 X76.954 Y62.776 E7.09197
G1 X77.545 Y62.73 E7.12746
G1 X78.102 Y62.706 E7.16084
G1 X78.627 Y62.704 E7.19227
G1 X79.218 Y62.723 E7.22767
M204 S5000
M205 X30 Y30
G0 F3600 X79.234 Y62.243
M204 S3000
M205 X20 Y20
G1 F2100 X79.834 Y62.286 E7.26368
G1 X80.423 Y62.352 E7.29916
G1 X81.014 Y62.441 E7.33495
G1 X81.573 Y62.547 E7.36901
G1 X82.198 Y62.692 E7.40742
G1 X82.714 Y62.833 E7.43944
G1 X83.841 Y63.21 E7.51059
G1 X84.416 Y63.44 E7.54767
G1 X84.897 Y63.654 E7.57919
G1 X85.964 Y64.205 E7.65108
G1 X86.506 Y64.527 E7.68882
G1 X86.987 Y64.839 E7.72315
G1 X87.921 Y65.523 E7.79245
G1 X88.323 Y65.852 E7.82355
G1 X88.817 Y66.291 E7.86312
G1 X89.639 Y67.114 E7.93276
G1 X90.001 Y67.517 E7.96519
G1 X90.419 Y68.024 E8.00453
G1 X90.746 Y68.451 E8.03673
G1 X91.116 Y68.978 E8.07528
G1 X91.73 Y69.973 E8.14527
G1 X92.031 Y70.531 E8.18323
G1 X92.285 Y71.053 E8.21799
G1 X92.495 Y71.521 E8.2487
G1 X92.738 Y72.131 E8.28801
G1 X93.021 Y73.04 E8.345
G1 X93.155 Y74.05 E8.406
G1 X93.159 Y94.429 E9.62605
G1 X93.149 Y95.101 E9.66629
G1 X93.101 Y95.644 E9.69893
G1 X92.947 Y96.255 E9.73665
G1 X92.712 Y96.939 E9.77995
G1 X92.514 Y97.448 E9.81265
G1 X92.118 Y98.309 E9.86938
G1 X91.825 Y98.871 E9.90733
G1 X91.545 Y99.357 E9.94091
G1 X90.914 Y100.327 E10.01018
G1 X90.54 Y100.834 E10.0479
G1 X90.184 Y101.28 E10.08207
G1 X89.419 Y102.133 E10.15066
G1 X89.056 Y102.497 E10.18144
G1 X88.559 Y102.955 E10.2219
G1 X88.13 Y103.322 E10.2557
G1 X87.612 Y103.729 E10.29514
G1 X87.107 Y104.092 E10.33237
G1 X86.66 Y104.389 E10.3645
G1 X86.222 Y104.659 E10.39531
G1 X85.665 Y104.972 E10.43356
G1 X84.567 Y105.507 E10.50668
G1 X84.017 Y105.736 E10.54235
G1 X83.456 Y105.943 E10.57815
G1 X82.882 Y106.13 E10.61429
G1 X82.34 Y106.284 E10.64802
G1 X81.191 Y106.541 E10.71851
G1 X80.681 Y106.626 E10.74947
G1 X80.017 Y106.708 E10.78952
G1 X79.485 Y106.755 E10.8215
G1 X78.814 Y106.786 E10.86171
G1 X78.24 Y106.789 E10.89607
G1 X77.645 Y106.77 E10.93171
G1 X77.044 Y106.727 E10.96779
G1 X76.455 Y106.661 E11.00327
G1 X75.864 Y106.572 E11.03905
G1 X75.305 Y106.466 E11.07311
G1 X74.809 Y106.353 E11.10357
G1 X74.168 Y106.181 E11.1433
G1 X73.69 Y106.034 E11.17324
G1 X73.039 Y105.804 E11.21458
G1 X72.472 Y105.576 E11.25116
G1 X71.968 Y105.351 E11.28421
G1 X71.512 Y105.13 E11.31455
G1 X70.908 Y104.804 E11.35564
G1 X69.942 Y104.208 E11.42359
G1 X69.494 Y103.897 E11.45624
G1 X68.947 Y103.483 E11.49731
G1 X68.556 Y103.161 E11.52764
G1 X68.056 Y102.718 E11.56763
G1 X67.232 Y101.895 E11.63735
G1 X66.865 Y101.483 E11.67038
G1 X66.44 Y100.967 E11.71041
G1 X66.064 Y100.469 E11.74776
G1 X65.752 Y100.021 E11.78045
G1 X65.47 Y99.583 E11.81164
G1 X65.135 Y99.017 E11.85101
G1 X64.841 Y98.47 E11.88819
G1 X64.589 Y97.951 E11.92273
G1 X64.383 Y97.491 E11.9529
G1 X64.148 Y96.901 E11.99093
G1 X63.844 Y95.911 E12.05293
G1 X63.723 Y94.95 E12.11091
G1 X63.719 Y74.588 E13.32995
G1 X63.728 Y73.918 E13.37007
G1 X63.776 Y73.375 E13.4027
G1 X63.93 Y72.758 E13.44077
G1 X64.159 Y72.092 E13.48294
G1 X64.4 Y71.48 E13.52232
G1 X64.766 Y70.692 E13.57433
G1 X65.051 Y70.146 E13.61121
G1 X65.331 Y69.659 E13.64484
G1 X65.964 Y68.686 E13.71433
G1 X66.338 Y68.179 E13.75205
G1 X66.698 Y67.728 E13.7866
G1 X67.494 Y66.842 E13.8579
G1 X67.876 Y66.464 E13.89008
G1 X68.344 Y66.035 E13.92809
G1 X69.263 Y65.287 E13.99903
G1 X69.774 Y64.918 E14.03676
G1 X70.222 Y64.621 E14.06894
G1 X70.661 Y64.35 E14.09983
G1 X71.213 Y64.04 E14.13773
G1 X72.311 Y63.506 E14.21083
G1 X72.861 Y63.277 E14.24649
G1 X73.422 Y63.07 E14.28229
G1 X73.996 Y62.883 E14.31843
G1 X74.538 Y62.729 E14.35217
G1 X75.687 Y62.472 E14.42266
G1 X76.894 Y62.3 E14.49565
G1 X77.411 Y62.257 E14.52671
G1 X78.081 Y62.226 E14.56686
G1 X78.643 Y62.224 E14.60051
G1 X79.234 Y62.243 E14.63591
M204 S5000
M205 X30 Y30
G0 F3600 X79.249 Y61.763
M204 S3000
M205 X20 Y20
G1 F2100 X79.888 Y61.809 E14.67426
G1 X80.477 Y61.875 E14.70975
G1 X81.103 Y61.97 E14.74765
G1 X81.662 Y62.076 E14.78171
G1 X82.164 Y62.188 E14.81251
G1 X82.84 Y62.37 E14.85442
G1 X83.348 Y62.526 E14.88623
G1 X84.001 Y62.757 E14.9277
G1 X84.468 Y62.941 E14.95775
G1 X85.092 Y63.216 E14.99858
G1 X85.56 Y63.443 E15.02972
G1 X86.191 Y63.782 E15.0726
G1 X86.63 Y64.039 E15.10306
G1 X87.249 Y64.436 E15.14708
G1 X87.683 Y64.74 E15.1788
G1 X88.211 Y65.14 E15.21846
G1 X88.63 Y65.483 E15.25088
G1 X89.137 Y65.933 E15.29146
G1 X89.513 Y66.292 E15.32259
G1 X89.984 Y66.78 E15.36319
G1 X90.372 Y67.211 E15.39791
G1 X90.79 Y67.718 E15.43725
G1 X91.129 Y68.161 E15.47064
G1 X91.51 Y68.704 E15.51036
G1 X92.142 Y69.728 E15.5824
G1 X92.463 Y70.321 E15.62277
G1 X92.717 Y70.843 E15.65752
G1 X92.941 Y71.344 E15.69038
G1 X93.184 Y71.954 E15.72969
G1 X93.492 Y72.949 E15.79205
G1 X93.635 Y74.045 E15.85822
G1 X93.639 Y94.436 E17.07899
G1 X93.629 Y95.108 E17.11923
G1 X93.58 Y95.686 E17.15396
G1 X93.401 Y96.411 E17.19866
G1 X93.166 Y97.095 E17.24196
G1 X92.959 Y97.626 E17.27608
G1 X92.553 Y98.512 E17.33443
G1 X92.241 Y99.111 E17.37486
G1 X91.961 Y99.597 E17.40844
G1 X91.312 Y100.595 E17.47971
G1 X91.007 Y101.014 E17.51074
G1 X90.56 Y101.579 E17.55387
G1 X90.229 Y101.964 E17.58427
G1 X89.771 Y102.459 E17.62464
G1 X89.381 Y102.85 E17.65771
G1 X88.884 Y103.308 E17.69817
G1 X88.427 Y103.7 E17.73421
G1 X87.909 Y104.107 E17.77365
G1 X87.489 Y104.412 E17.80473
G1 X86.925 Y104.789 E17.84534
G1 X86.458 Y105.077 E17.87819
G1 X85.901 Y105.39 E17.91644
G1 X85.425 Y105.636 E17.94852
G1 X84.769 Y105.942 E17.99186
G1 X84.183 Y106.186 E18.02986
G1 X83.622 Y106.393 E18.06566
G1 X83.013 Y106.592 E18.10401
G1 X82.471 Y106.746 E18.13775
G1 X81.953 Y106.875 E18.16971
G1 X81.288 Y107.011 E18.21034
G1 X80.757 Y107.1 E18.24258
G1 X80.074 Y107.185 E18.28378
G1 X79.507 Y107.235 E18.31786
G1 X78.836 Y107.266 E18.35807
G1 X78.225 Y107.269 E18.39465
G1 X77.63 Y107.25 E18.43029
G1 X76.99 Y107.204 E18.46871
G1 X76.401 Y107.138 E18.50419
G1 X75.775 Y107.043 E18.5421
G1 X75.216 Y106.937 E18.57616
G1 X74.699 Y106.821 E18.60788
G1 X74.042 Y106.644 E18.64862
G1 X73.53 Y106.486 E18.6807
G1 X72.879 Y106.256 E18.72203
G1 X72.276 Y106.014 E18.76093
G1 X71.772 Y105.789 E18.79397
G1 X71.284 Y105.552 E18.82645
G1 X70.68 Y105.226 E18.86754
G1 X70.235 Y104.965 E18.89843
G1 X69.683 Y104.612 E18.93766
G1 X69.204 Y104.28 E18.97255
G1 X68.657 Y103.866 E19.01362
G1 X68.247 Y103.529 E19.04539
G1 X67.737 Y103.076 E19.08623
G1 X67.357 Y102.713 E19.11769
G1 X66.888 Y102.229 E19.15804
G1 X66.504 Y101.799 E19.19255
G1 X66.069 Y101.271 E19.23351
G1 X65.763 Y100.871 E19.26366
G1 X65.358 Y100.295 E19.30582
G1 X65.065 Y99.842 E19.33812
G1 X64.721 Y99.26 E19.37859
G1 X64.409 Y98.679 E19.41807
G1 X64.157 Y98.16 E19.45261
G1 X63.937 Y97.668 E19.48488
G1 X63.702 Y97.078 E19.5229
G1 X63.371 Y95.996 E19.59064
G1 X63.243 Y94.955 E19.65343
G1 X63.239 Y74.582 E20.87313
G1 X63.248 Y73.912 E20.91324
G1 X63.296 Y73.334 E20.94797
G1 X63.476 Y72.602 E20.9931
G1 X63.705 Y71.936 E21.03526
G1 X63.956 Y71.296 E21.07642
G1 X64.332 Y70.487 E21.12983
G1 X64.635 Y69.907 E21.169
G1 X64.915 Y69.42 E21.20263
G1 X65.179 Y68.993 E21.23269
G1 X65.566 Y68.418 E21.27418
G1 X65.871 Y67.999 E21.30521
G1 X66.323 Y67.429 E21.34876
G1 X66.663 Y67.033 E21.38001
G1 X67.142 Y66.516 E21.4222
G1 X67.542 Y66.119 E21.45594
G1 X68.021 Y65.68 E21.49484
G1 X68.413 Y65.346 E21.52567
G1 X68.966 Y64.91 E21.56783
G1 X69.378 Y64.608 E21.59842
G1 X69.956 Y64.221 E21.64006
G1 X70.426 Y63.932 E21.67309
G1 X70.978 Y63.622 E21.71099
G1 X71.453 Y63.377 E21.74299
G1 X72.109 Y63.071 E21.78633
G1 X72.695 Y62.827 E21.82433
G1 X73.256 Y62.62 E21.86013
G1 X73.865 Y62.421 E21.89849
G1 X74.407 Y62.267 E21.93222
G1 X74.925 Y62.138 E21.96418
G1 X75.59 Y62.002 E22.00482
G1 X76.118 Y61.914 E22.03686
G1 X76.834 Y61.824 E22.08006
G1 X77.376 Y61.778 E22.11263
G1 X78.06 Y61.747 E22.15362
G1 X78.658 Y61.744 E22.18942
G1 X79.249 Y61.763 E22.22482
M204 S5000
M205 X30 Y30
G1 F2700 E17.22482
;MESH:Duct_Joint.stl
G0 F3600 X79.109 Y65.286
G0 X79.093 Y66.21
G0 X80.759 Y67.28
G0 X81.686 Y68.567
G0 X86.614 Y81.474
G0 X87.032 Y83.022
G0 X87.156 Y84.612
G0 X86.994 Y86.199
G0 X86.541 Y87.73
G0 X85.821 Y89.148
G0 X84.846 Y90.423
G0 X83.66 Y91.489
G0 X82.297 Y92.326
G0 X81.453 Y92.649
G0 X79.248 Y93.391
M204 S3000
M205 X20 Y20
;TYPE:WALL-INNER
G1 F2700 E22.22482
G1 F2100 X80.067 Y93.277 E22.27433
G1 X80.863 Y93.091 E22.32327
G1 X81.638 Y92.833 E22.37217
G1 X82.388 Y92.505 E22.42118
G1 X83.104 Y92.111 E22.4701
G1 X83.782 Y91.65 E22.51919
G1 X84.413 Y91.131 E22.5681
G1 X84.995 Y90.556 E22.61708
G1 X85.521 Y89.93 E22.66603
G1 X85.989 Y89.259 E22.71501
G1 X86.391 Y88.548 E22.76391
G1 X86.729 Y87.802 E22.81294
G1 X86.995 Y87.029 E22.86188
G1 X87.191 Y86.235 E22.91085
G1 X87.312 Y85.425 E22.95988
G1 X87.358 Y84.609 E23.00881
G1 X87.331 Y83.792 E23.05775
G1 X87.228 Y82.98 E23.10675
G1 X87.051 Y82.18 E23.1558
G1 X86.802 Y81.402 E23.20471
G1 X86.483 Y80.649 E23.25367
G1 X86.095 Y79.928 E23.30268
G1 X85.644 Y79.246 E23.35163
G1 X85.132 Y78.608 E23.40061
G1 X84.564 Y78.02 E23.44955
G1 X83.943 Y77.487 E23.49855
G1 X83.278 Y77.011 E23.54751
G1 X82.57 Y76.6 E23.59652
G1 X81.829 Y76.256 E23.64543
G1 X81.059 Y75.979 E23.69442
G1 X80.266 Y75.775 E23.74344
G1 X79.459 Y75.644 E23.79239
G1 X78.643 Y75.589 E23.84135
G1 X77.826 Y75.607 E23.89027
G1 X77.013 Y75.701 E23.93927
G1 X76.212 Y75.868 E23.98826
G1 X75.431 Y76.109 E24.03719
G1 X74.674 Y76.418 E24.08614
G1 X73.949 Y76.798 E24.13515
G1 X73.262 Y77.242 E24.18412
G1 X72.617 Y77.747 E24.23316
G1 X72.023 Y78.308 E24.28207
G1 X71.483 Y78.922 E24.33103
G1 X71.001 Y79.581 E24.37991
G1 X70.581 Y80.284 E24.42893
G1 X70.227 Y81.021 E24.47788
G1 X69.942 Y81.789 E24.52693
G1 X69.729 Y82.578 E24.57585
G1 X69.589 Y83.385 E24.62489
G1 X69.524 Y84.199 E24.67378
G1 X69.532 Y85.017 E24.72275
G1 X69.617 Y85.831 E24.77175
G1 X69.775 Y86.634 E24.82074
G1 X70.007 Y87.419 E24.86975
G1 X70.309 Y88.179 E24.91871
G1 X70.679 Y88.908 E24.96765
G1 X71.116 Y89.599 E25.0166
G1 X71.612 Y90.249 E25.06555
G1 X72.167 Y90.851 E25.11457
G1 X72.774 Y91.398 E25.16349
G1 X73.43 Y91.889 E25.21255
G1 X74.127 Y92.316 E25.26148
G1 X74.861 Y92.678 E25.31048
G1 X75.623 Y92.971 E25.35936
G1 X76.411 Y93.194 E25.40838
G1 X77.215 Y93.343 E25.45734
G1 X78.038 Y93.418 E25.50681
G1 X79.248 Y93.391 E25.57927
M204 S5000
M205 X30 Y30
G0 F3600 X75.743 Y96.813
G0 X75.024 Y98.222
G0 X74.993 Y99.811
G0 X76.094 Y101.975
M204 S3000
M205 X20 Y20
G1 F2100 X76.194 Y102.038 E25.58635
G1 X76.38 Y102.157 E25.59957
G1 X76.145 Y102.116 E25.60164
G1 X76.064 Y102.096
G1 X75.444 Y101.937 E25.63996
G1 X75.342 Y101.91 E25.64628
G1 X74.541 Y101.635 E25.69698
G1 X73.771 Y101.304 E25.74716
G1 X73.026 Y100.913 E25.79753
G1 X72.323 Y100.471 E25.84724
G1 X71.64 Y99.965 E25.89813
G1 X71.016 Y99.421 E25.94769
G1 X70.422 Y98.819 E25.99833
G1 X69.887 Y98.184 E26.04804
G1 X69.386 Y97.486 E26.09947
G1 X68.957 Y96.779 E26.14898
G1 X68.586 Y96.045 E26.19822
G1 X68.258 Y95.248 E26.24982
G1 X68.159 Y94.96 E26.26805
G1 X68.159 Y74.06 E27.5193
G1 X68.418 Y73.356 E27.56421
G1 X68.759 Y72.611 E27.61326
G1 X69.175 Y71.861 E27.6646
G1 X69.63 Y71.173 E27.71399
G1 X70.145 Y70.511 E27.7642
G1 X70.711 Y69.89 E27.8145
G1 X71.328 Y69.31 E27.8652
G1 X71.981 Y68.785 E27.91536
G1 X72.663 Y68.318 E27.96485
G1 X73.394 Y67.897 E28.01535
G1 X74.153 Y67.535 E28.06569
G1 X74.938 Y67.233 E28.11605
G1 X75.444 Y67.082 E28.14766
G1 X75.454 Y67.079 E28.14829
G1 X75.739 Y66.993 E28.16611
G1 X76.192 Y66.896 E28.19384
G1 X76.362 Y66.859 E28.20426
G1 X76.204 Y66.951 E28.20524
G1 X75.938 Y67.202 E28.21178
G1 X75.59 Y67.531 E28.23572
G1 X75.584 Y67.54 E28.23636
G1 X75.124 Y68.234 E28.28621
G1 X74.827 Y69.024 E28.33674
G1 X74.714 Y69.862 E28.38736
G1 X74.795 Y70.701 E28.43783
G1 X75.062 Y71.501 E28.48832
G1 X75.501 Y72.221 E28.5388
G1 X76.094 Y72.825 E28.58948
G1 X76.805 Y73.278 E28.63995
G1 X77.586 Y73.556 E28.68958
G1 X78.17 Y73.645 E28.72495
G1 X79 Y73.614 E28.77467
G1 X79.815 Y73.392 E28.82524
G1 X80.56 Y72.994 E28.87581
G1 X81.194 Y72.438 E28.9263
G1 X81.688 Y71.753 E28.97686
G1 X82.015 Y70.975 E29.02738
G1 X82.157 Y70.143 E29.07791
G1 X82.11 Y69.3 E29.12846
G1 X81.873 Y68.49 E29.17899
G1 X81.461 Y67.754 E29.22948
G1 X81.224 Y67.493 E29.25059
G1 X80.892 Y67.128 E29.28013
G1 X80.677 Y66.979 E29.29579
